packages/core/src/svgs/tokens/mono/DAD.svg

<svg width="24" height="24" viewBox="0 0 24 24" fill="none" xmlns="http://www.w3.org/2000/svg">
<path d="M12.791 2H2.66699V5.99999H11.3723C13.0543 6.04467 16.6669 8.00333 16.6669 11.7466C16.6669 16.2333 13.2189 17.9999 11.3723 17.9999H6.66699V22H12.791C15.6596 22 21.463 19.14 21.331 11.7466C21.2003 4.35467 15.4944 2 12.791 2ZM8.66705 10H10.667C11.1975 10 11.7061 10.2106 12.0812 10.5858C12.4562 10.9609 12.667 11.4695 12.667 12C12.667 12.5304 12.4562 13.0391 12.0812 13.4141C11.7061 13.7893 11.1975 14 10.667 14H8.66705V10ZM2.66699 12C2.66699 11.4695 2.87771 10.9609 3.25278 10.5858C3.62786 10.2106 4.13655 10 4.667 10V14C4.13655 14 3.62786 13.7893 3.25278 13.4141C2.87771 13.0391 2.66699 12.5304 2.66699 12Z" fill="white"/>
</svg>

<svg xmlns="http://www.w3.org/2000/svg" width="24" height="24" fill="none" viewBox="0 0 24 24">
    <path fill="#fff" d="M12.791 2H2.667v4h8.705c1.682.045 5.295 2.003 5.295 5.747 0 4.486-3.448 6.253-5.295 6.253H6.667v4h6.124c2.869 0 8.672-2.86 8.54-10.253C21.201 4.355 15.494 2 12.791 2m-4.124 8h2a2 2 0 1 1 0 4h-2zm-6 2a2 2 0 0 1 2-2v4a2 2 0 0 1-2-2"/>
</svg>
